X:1
T:I had a dream, mother
T:I had a dream just now, mother
T:S. Nourse
T:A. J. Shiveley
C:S. Nourse
Z:A. J. Shively
%%score [ 1 2 3 4 ]
L:1/8
Q:1/4=60
M:6/8
K:D
V:1 treble nm="Soprano"
V:2 treble nm="Alto"
V:3 treble-8 nm="Tenor"
V:4 bass nm="Bass"
V:1
 F | F2 F F2 F | (A2 A) (F/ F3/2) F | E2 E (EA) G | (F3 F2) F | F2 F F2 F | (A2 A) (F/ F3/2) F | %7
w: 1.I|had a dream just|now, _ mo- ther, I|dreamt an an- * gel|came _ And|Hovered round my bed-|side, _ mo- ther, And|
w: 2.He|spoke and said, "Be|pa- tient, child, _ I'll|come to- mor- * row|e- ven, And|bear you to a|fair- er home, _ Pre-|
w: 3.I|wak'd \-the an- gel|gone, _ mo- ther, And|in his place * stood|you; _ But|what he spoke I|know, _ mo- ther, Will|
 E2 E (EG) F | D3- D z E | A2 A B2 c | A2 E (E/ E3/2) E | A2 A [^GB]2 G | A4 =G2 | F2 F F2 F | %14
w: sweet- ly spoke _ my|name. _ His|eyes were very- y|bright, dear mo- ther, His|vis- age ver- y|fair, And|on his head he|
w: pared for you _ in|heav'n; _ Shrink|no, but bear thy|suf- ferrings now," _ He|said, all in a|breath; "To|take you there, I'll|
w: cer- tain- ly _ prove|true. _ Re-|mem- ber then, to-|mor- row e- ven, He|will most tru- ly|come, And|fly with me far,|
 A3 F/ F3/2 F | E2 E (EA) G | F3- F2 A | B2 B B2 B | (A2 !fermata!d) F/ !fermata!A3/2 A | %19
w: wore, mo- ther, A|wreath of gol- * den|hair, _ And|on his head hs|wore, _ mo- ther, A|
w: pass you thro' The|vale that you * call|death, _ To|take you there, I'll|pass _ you thro' The|
w: far a- way, To|his an- gel- * ic|home, _ And|fly with me, far,|far _ a- way, To|
 A2 F (AG) C | D3- D2 |] %21
w: wreath of gol- * den|hair. _|
w: val- ley you * call|death." _|
w: his an- ge- * lic|home. _|
V:2
 D | D2 D D2 D | (F2 F) (D/ D3/2) D | C2 C (CF) E | (D3 D2) D | D2 D D2 D | (F2 F) (D/ D3/2) D | %7
w: 1.I|had a dream just|now, _ mo- ther, I|dreamt an an- * gel|came _ And|Hovered round my bed-|side, _ mo- ther, And|
w: 2.He|spoke and said, "Be|pa- tient, child, _ I'll|come to- mor- * row|e- ven, And|bear you to a|fair- er home, _ Pre-|
w: 3.I|wak'd \-the an- gel|gone, _ mo- ther, And|in his place * stood|you; _ But|what he spoke I|know, _ mo- ther, Will|
 C2 C C2 C | D3- D z C | E2 E ^G2 G | A2 C (C/ C3/2) C | E2 E E2 E | E4 E2 | D2 D D2 D | %14
w: sweet- ly spoke my|name. _ His|eyes were very- y|bright, dear mo- ther, His|vis- age ver- y|fair, And|on his head he|
w: pared for you in|heav'n; _ Shrink|no, but bear thy|suf- ferrings now," _ He|said, all in a|breath; "To|take you there, I'll|
w: cer- tain- ly prove|true. _ Re-|mem- ber then, to-|mor- row e- ven, He|will most tru- ly|come, And|fly with me far,|
 F3 D/ D3/2 D | C2 C C2 E | D3- D2 F | G2 G G2 G | !fermata!F3 D/ !fermata!F3/2 F | F2 D C2 A, | %20
w: wore, mo- ther, A|wreath of gol- den|hair, _ And|on his head hs|wore, mo- ther, A|wreath of gol- den|
w: pass you thro' The|vale that you call|death, _ To|take you there, I'll|pass you thro' The|val- ley you call|
w: far a- way, To|his an- gel- ic|home, _ And|fly with me, far,|far a- way, To|his an- ge- lic|
 A,3- A,2 |] %21
w: hair. _|
w: death." _|
w: home. _|
V:3
 A | A2 A A2 A | (d2 d) (A/ A3/2) A | A2 A A2 A | (A3 A2) A | A2 A A2 A | (d2 d) (A/ A3/2) A | %7
w: 1.I|had a dream just|now, _ mo- ther, I|dreamt an an- gel|came _ And|Hovered round my bed-|side, _ mo- ther, And|
w: 2.He|spoke and said, "Be|pa- tient, child, _ I'll|come to- mor- row|e- ven, And|bear you to a|fair- er home, _ Pre-|
w: 3.I|wak'd \-the an- gel|gone, _ mo- ther, And|in his place stood|you; _ But|what he spoke I|know, _ mo- ther, Will|
 A2 A A2 A | F3- F z A | c2 c e2 e | d2 A (A/ A3/2) A | c2 c e2 d | c4 A2 | A2 A A2 A | %14
w: sweet- ly spoke my|name. _ His|eyes were very- y|bright, dear mo- ther, His|vis- age ver- y|fair, And|on his head he|
w: pared for you in|heav'n; _ Shrink|no, but bear thy|suf- ferrings now," _ He|said, all in a|breath; "To|take you there, I'll|
w: cer- tain- ly prove|true. _ Re-|mem- ber then, to-|mor- row e- ven, He|will most tru- ly|come, And|fly with me far,|
 d3 A/ A3/2 A | A2 A A2 A | A3- A2 d | d2 d d2 d | (d2 !fermata!A) d/ !fermata!d3/2 d | d2 A A2 G | %20
w: wore, mo- ther, A|wreath of gol- den|hair, _ And|on his head hs|wore, _ mo- ther, A|wreath of gol- den|
w: pass you thro' The|vale that you call|death, _ To|take you there, I'll|pass _ you thro' The|val- ley you call|
w: far a- way, To|his an- gel- ic|home, _ And|fly with me, far,|far _ a- way, To|his an- ge- lic|
 F3- F2 |] %21
w: hair. _|
w: death." _|
w: home. _|
V:4
 D, | D,2 D, D,2 D, | (D,2 D,) (D,/ D,3/2) D, | A,2 A, A,,2 A,, | (D,3 D,2) D, | D,2 D, D,2 D, | %6
w: 1.I|had a dream just|now, _ mo- ther, I|dreamt an an- gel|came _ And|Hovered round my bed-|
w: 2.He|spoke and said, "Be|pa- tient, child, _ I'll|come to- mor- row|e- ven, And|bear you to a|
w: 3.I|wak'd \-the an- gel|gone, _ mo- ther, And|in his place stood|you; _ But|what he spoke I|
 (D,2 D,) (D,/ D,3/2) D, | A,2 A, A,,2 A,, | D,3- D, z A, | A,2 A, E,2 E, | %10
w: side, _ mo- ther, And|sweet- ly spoke my|name. _ His|eyes were very- y|
w: fair- er home, _ Pre-|pared for you in|heav'n; _ Shrink|no, but bear thy|
w: know, _ mo- ther, Will|cer- tain- ly prove|true. _ Re-|mem- ber then, to-|
 A,2 A, (A,,/ A,,3/2) A,, | E,2 E, E,2 E, | [A,,A,]4 C,2 | D,2 D, D,2 D, | D,3 D,/ D,3/2 D, | %15
w: bright, dear mo- ther, His|vis- age ver- y|fair, And|on his head he|wore, mo- ther, A|
w: suf- ferrings now," _ He|said, all in a|breath; "To|take you there, I'll|pass you thro' The|
w: mor- row e- ven, He|will most tru- ly|come, And|fly with me far,|far a- way, To|
 A,2 A, A,,2 A,, | D,3- D,2 D, | G,2 G, G,2 G, | !fermata!D,3 D,/ !fermata!D,3/2 D, | %19
w: wreath of gol- den|hair, _ And|on his head hs|wore, mo- ther, A|
w: vale that you call|death, _ To|take you there, I'll|pass you thro' The|
w: his an- gel- ic|home, _ And|fly with me, far,|far a- way, To|
 A,2 A, A,,2 A,, | D,3- D,2 |] %21
w: wreath of gol- den|hair. _|
w: val- ley you call|death." _|
w: his an- ge- lic|home. _|

